X:1
T:Title
%%score { ( 1 3 ) | ( 2 4 ) }
L:1/8
M:4/4
K:Bb
V:1 treble nm="Grand Piano"
V:3 treble 
V:2 bass 
V:4 bass 
V:1
 z4 z2[Q:1/4=100] [DF]2 | [DB]2 [EB][EB] [DB]2 DE | FGFE D2 B2 | A6 z2 | B6 z2 | %5
 [Fd]2 [Fd][Fd] [^Fc]2 [DFc]2 | [DGB][DGc][CGB][C^FA] [B,G]2 [B,DG]2 | %7
 [=Ec]2 [EB][FA] [EG]2 [Ec]2 | z2 (3fff f2 F=E | [F,CE]2 [A,CEF]2 [A,CEA]2 [Ge]2 | [Fd]4 z4 | %11
 [F,CE]2 [A,CEF]2 [A,CEA]2 [Ge]2 | [Fd]4 z4 | [GB]2 [GB]2 [GA]2 [GB]2 | f4 d2 Bc | %15
 [EBd]2 [FBd][DFB] [EFc]2 [EFc]2 |[M:3/4] [DFB]6 |[M:1/4] DE |[M:4/4] F6[K:bass][K:treble] z2 | %19
 G6 z2 | A2 A2 AAGA | [DF-]4 F2 z2 | F6[K:bass][K:treble] z2 | G6 z2 | [=Ec]2 [Ec]2 [Gc]G A>B | %25
 c6[K:bass] .[B,D]2 | [DF]2- [F,D-F-]2 [B,DF]=EF^F | G6 z2 | A2 A2 B2 [Gc]2 | [^Fd]6 [Fd][Fd] | %30
 [Ge]2 [Ge]2 [Gd]2 [Gd][Gd] | [Gc]2 [GB]2 [GA]2 GG |[M:5/4] F2 B2 f3 e3 |[M:3/4] [DBd]6 |] %34
V:2
 z4 z2 [B,,B,]2 | [B,,F,]2 [B,,G,][B,,G,] [B,,F,]2 D,E, | F,G,F,E, D,2 z2 | z2 [F,C]2 [F,C]2 z2 | %4
 z2 [B,,B,]2 [B,,B,]2 [B,,B,]2 | [B,,B,]2 [B,,B,][B,,B,] [D,A,]2 D,2 | G,G,D,D, G,2 G,2 | %7
 [C,G,]2 [C,C][C,C] [C,C]2 [C,B,]2 | z2[K:treble] (3[ce][ce][ce] [ce]2 D_D | %9
 F,,2 F,2 F,2 [F,A,C]2 | [B,,B,]2 [F,B,]2 [F,B,D]2 D_D | F,,2 F,2 F,2 [F,A,C]2 | %12
 [B,,B,]2 [F,B,]2 [F,B,D]2 [G,B,][G,B,G] | [=E,_D]2 [E,D]2 [E,D]2 [E,D]2 | [F,DF]4 [F,B,F]2 DE | %15
 F,2 F,F, F,2 F,2 |[M:3/4] B,,6 |[M:1/4] B,C |[M:4/4] D6 z2 | %19
 E[E,B,][D,=B,][D,B,] [C,C]2 [C,C][C,C] | [F,CE]2 [F,CE]2 [F,CE][F,CE][F,B,E][F,CE] | %21
 B,,2 =B,,2 [C,A,]2 B,C | D6 z2 | E[E,B,][D,=B,][D,B,] [C,C][C,C][C,C][C,C] | %24
 [C,G,]2 [C,C]2 [=E,C][K:treble][B,C=E] [A,CF]>[K:bass][G,CE] | E6 z2 | B,,2 B,,2 B,,_D=DD | %27
 E[E,B,][D,=B,][D,B,] [C,C]2 [C,C][C,C] | [F,CE]2 [F,CE]2 [G,B,D]2 [E,G,]2 | [D,A,]6 [D,A,][D,A,] | %30
 [C,C]2 [C,C]2 [D,=B,]2 [D,B,][D,B,] | [E,C]2 [E,C]2 [=E,_D]2 [E,D][E,B,D] | %32
[M:5/4] [F,B,D]2 [F,DF]2 [F,,F,B,Fd]3 [F,,F,A,Ec]3 |[M:3/4] [B,,B,]6 |] %34
V:3
 x8 | x8 | x8 | z2 E2 E2 c2 | z2 D2 D2 [DF]2 | x8 | x8 | x8 | F6 z2 | x8 | z2 D2 B2 F=E | x8 | %12
 z2 D2 B2 GA | x8 | x8 | x8 |[M:3/4] x6 |[M:1/4] x2 |[M:4/4] z2[K:bass] F,2 B,[K:treble]=EF^F | %19
 z EFF E2 [E^F][EG] | x8 | B,2 _A,2 E2 DE | z2[K:bass] F,>F, B,[K:treble]=EFD | %23
 z EFF E[EG][E^F][EG] | x8 | z z/[K:bass] G,/ A,4 F,-[F,CE] | B,2 z2 z4 | z EFF E2 [EG][EG] | x8 | %29
 x8 | x8 | x8 |[M:5/4] x10 |[M:3/4] x6 |] %34
V:4
 x8 | x8 | x8 | x8 | x8 | x8 | x8 | x8 | [F,A,]6[K:treble] z2 | x8 | x8 | x8 | x8 | x8 | %14
 z4 z2 [F,F]2 | x8 |[M:3/4] x6 |[M:1/4] x2 |[M:4/4] z2 B,,2 B,,_D=DD | x8 | x8 | x8 | %22
 z2 B,,>B,, B,,_D .=D2 | x8 | x5[K:treble] x5/2[K:bass] x/ | [F,A,]2 z z/ G,/ F,E,D,C, | x8 | x8 | %28
 x8 | x8 | x8 | x8 |[M:5/4] x10 |[M:3/4] x6 |] %34

